markap/dist/images/Support.svg

<svg width="64" height="64" viewBox="0 0 64 64" fill="none" xmlns="http://www.w3.org/2000/svg">
<path fill-rule="evenodd" clip-rule="evenodd" d="M53.4513 35.0762V52.3713C53.4513 55.4647 51.027 57.9997 48.0632 57.9997H15.9702C13.0064 57.9997 10.5822 55.4647 10.5822 52.3713V35.0762H27.2482V42.587L32.0167 45.7204L36.7852 42.587V35.0762H53.4513Z" fill="url(#paint0_linear_22728_7137)"/>
<path fill-rule="evenodd" clip-rule="evenodd" d="M28.9185 35.0762V41.6847L32.0166 43.7202L35.1147 41.6847V35.0762H28.9185Z" fill="url(#paint1_linear_22728_7137)"/>
<path fill-rule="evenodd" clip-rule="evenodd" d="M12.0734 15.1426H51.9599C53.8423 15.1426 55.3808 16.8507 55.3808 18.938V29.1912C55.3808 31.2786 53.8423 32.9867 51.9599 32.9867H36.314H27.7194H12.0734C10.191 32.9867 8.65259 31.2786 8.65259 29.1912V18.938C8.65259 16.8507 10.191 15.1426 12.0734 15.1426Z" fill="url(#paint2_linear_22728_7137)"/>
<path fill-rule="evenodd" clip-rule="evenodd" d="M23.7119 5.95508H40.3214C41.8646 5.95508 43.1274 7.21788 43.1274 8.76103V13.1384H39.5699V10.5516C39.5699 9.8542 38.9998 9.2817 38.3024 9.2817H25.731C25.0336 9.2817 24.4635 9.8542 24.4635 10.5516V13.1384H20.9059V8.76103C20.9059 7.21788 22.1687 5.95508 23.7119 5.95508Z" fill="url(#paint3_linear_22728_7137)"/>
<defs>
<linearGradient id="paint0_linear_22728_7137" x1="32.0167" y1="35.0762" x2="32.0167" y2="57.9997" gradientUnits="userSpaceOnUse">
<stop stop-color="#EF8080"/>
<stop offset="1" stop-color="#F0145A"/>
</linearGradient>
<linearGradient id="paint1_linear_22728_7137" x1="32.0166" y1="35.0762" x2="32.0166" y2="43.7202" gradientUnits="userSpaceOnUse">
<stop stop-color="#EF8080"/>
<stop offset="1" stop-color="#F0145A"/>
</linearGradient>
<linearGradient id="paint2_linear_22728_7137" x1="32.0167" y1="15.1426" x2="32.0167" y2="32.9867" gradientUnits="userSpaceOnUse">
<stop stop-color="#EF8080"/>
<stop offset="1" stop-color="#F0145A"/>
</linearGradient>
<linearGradient id="paint3_linear_22728_7137" x1="32.0167" y1="5.95508" x2="32.0167" y2="13.1384" gradientUnits="userSpaceOnUse">
<stop stop-color="#EF8080"/>
<stop offset="1" stop-color="#F0145A"/>
</linearGradient>
</defs>
</svg>

<svg width="64" height="64" fill="none" xmlns="http://www.w3.org/2000/svg"><path fill-rule="evenodd" clip-rule="evenodd" d="M53.451 35.076v17.295c0 3.094-2.424 5.629-5.388 5.629H15.97c-2.964 0-5.388-2.535-5.388-5.629V35.076h16.666v7.511l4.769 3.133 4.768-3.133v-7.51h16.666z" fill="url(#paint0_linear_22728_7137)"/><path fill-rule="evenodd" clip-rule="evenodd" d="M28.919 35.076v6.609l3.098 2.035 3.098-2.035v-6.609h-6.197z" fill="url(#paint1_linear_22728_7137)"/><path fill-rule="evenodd" clip-rule="evenodd" d="M12.073 15.143H51.96c1.882 0 3.42 1.708 3.42 3.795v10.253c0 2.088-1.538 3.796-3.42 3.796H12.073c-1.882 0-3.42-1.708-3.42-3.796V18.938c0-2.087 1.538-3.795 3.42-3.795z" fill="url(#paint2_linear_22728_7137)"/><path fill-rule="evenodd" clip-rule="evenodd" d="M23.712 5.955h16.61a2.814 2.814 0 012.805 2.806v4.377H39.57v-2.586c0-.698-.57-1.27-1.268-1.27H25.731c-.697 0-1.268.572-1.268 1.27v2.586h-3.557V8.761a2.814 2.814 0 012.806-2.806z" fill="url(#paint3_linear_22728_7137)"/><defs><linearGradient id="paint0_linear_22728_7137" x1="32.017" y1="35.076" x2="32.017" y2="58" gradientUnits="userSpaceOnUse"><stop stop-color="#EF8080"/><stop offset="1" stop-color="#F0145A"/></linearGradient><linearGradient id="paint1_linear_22728_7137" x1="32.017" y1="35.076" x2="32.017" y2="43.72" gradientUnits="userSpaceOnUse"><stop stop-color="#EF8080"/><stop offset="1" stop-color="#F0145A"/></linearGradient><linearGradient id="paint2_linear_22728_7137" x1="32.017" y1="15.143" x2="32.017" y2="32.987" gradientUnits="userSpaceOnUse"><stop stop-color="#EF8080"/><stop offset="1" stop-color="#F0145A"/></linearGradient><linearGradient id="paint3_linear_22728_7137" x1="32.017" y1="5.955" x2="32.017" y2="13.138" gradientUnits="userSpaceOnUse"><stop stop-color="#EF8080"/><stop offset="1" stop-color="#F0145A"/></linearGradient></defs></svg>
